storage/app/icons/phosphoricons/duotone/exclude-square-duotone.svg

<svg xmlns="http://www.w3.org/2000/svg" fill="currentColor" viewBox="0 0 256 256"><path d="M96 96v64H40V40h120v56Zm64 0v64H96v56h120V96Z" opacity=".2"/><path d="M216 88h-48V40a8 8 0 0 0-8-8H40a8 8 0 0 0-8 8v120a8 8 0 0 0 8 8h48v48a8 8 0 0 0 8 8h120a8 8 0 0 0 8-8V96a8 8 0 0 0-8-8M48 152V48h104v40H96a8 8 0 0 0-8 8v56Zm104-48v48h-48v-48Zm56 104H104v-40h56a8 8 0 0 0 8-8v-56h40Z"/></svg>

<svg xmlns="http://www.w3.org/2000/svg" viewBox="0 0 256 256" fill="currentColor"><path d="M96,96v64H40V40H160V96Zm64,0v64H96v56H216V96Z" opacity="0.2"/><path d="M216,88H168V40a8,8,0,0,0-8-8H40a8,8,0,0,0-8,8V160a8,8,0,0,0,8,8H88v48a8,8,0,0,0,8,8H216a8,8,0,0,0,8-8V96A8,8,0,0,0,216,88ZM48,152V48H152V88H96a8,8,0,0,0-8,8v56Zm104-48v48H104V104Zm56,104H104V168h56a8,8,0,0,0,8-8V104h40Z"/></svg>
